X:489
T: Das alta Weib (197a), S. 426
N: T0377
O: Luxemburg
S: Singendes Volk, Esch-Alzette, 1937 posth.]
N: Tadler, hhh Nikolaus Schroeder, 26.2.1933;
N: (197b)- Rodershausen, Lena Peters, 1930,
N:  mitgeteilt, hhh Josef Bour (Lehrer)
R: Hochzeits-, Ehestandslied]
M: 4/4
L: 1/8
K: E
B2 | B2A2G2FF | F2E2E2
E2 | c2c2c2c2 | B4z2
B2 | e2B2B2B2 | ddddd2
c2 | B2A2G2F2 | E4z2
B2 | B2A2G2F2 | EEEEE2
E2 | c2c2c2c2 | B4z2
B2 | e2B2B2B2 | ddddd2
c2 | B2A2G2F2 | E4z2

